icons/AdobeStockColor.svg

<svg width="16" height="16" viewBox="0 0 16 16" fill="none" xmlns="http://www.w3.org/2000/svg">
<g clip-path="url(#clip0_2180_4610)">
<path d="M2.83333 0.200012H13.1667C14.7333 0.200012 16 1.46668 16 3.03335V12.9667C16 14.5333 14.7333 15.8 13.1667 15.8H2.83333C1.26667 15.8 0 14.5333 0 12.9667V3.03335C0 1.46668 1.26667 0.200012 2.83333 0.200012Z" fill="#000B1D"/>
<path d="M5.94656 11.3334C5.57989 11.34 5.21322 11.3 4.85989 11.2334C4.57989 11.18 4.29989 11.0934 4.03989 10.9734C3.97989 10.9467 3.95322 10.8867 3.95322 10.7934V9.51336C3.95322 9.49336 3.95989 9.46669 3.97989 9.45336C3.99989 9.44002 4.02656 9.44669 4.04656 9.46002C4.34656 9.64669 4.66656 9.78669 4.99989 9.88002C5.31989 9.97336 5.65322 10.02 5.98656 10.02C6.39322 10.02 6.68656 9.96002 6.85989 9.83336C7.01989 9.73336 7.11989 9.56002 7.11989 9.36669C7.11989 9.25336 7.09322 9.14002 7.03322 9.04002C6.95322 8.92669 6.85322 8.82669 6.73322 8.75336C6.54656 8.64002 6.34656 8.54002 6.13989 8.46669L5.59989 8.24002C5.16656 8.05336 4.81989 7.85336 4.57322 7.64669C4.34656 7.46669 4.17322 7.23336 4.06656 6.96669C3.97322 6.71336 3.92656 6.45336 3.92656 6.18002C3.91322 5.40669 4.36656 4.69336 5.07322 4.38002C5.45322 4.20002 5.92656 4.10669 6.49322 4.10669C6.81322 4.10669 7.13322 4.12669 7.45322 4.17336C7.69989 4.20002 7.93989 4.27336 8.16656 4.38002C8.21322 4.40669 8.24656 4.46002 8.23989 4.52002V5.73336C8.23989 5.75336 8.22656 5.76669 8.21322 5.78002C8.19322 5.80002 8.17322 5.79336 8.14656 5.77336C7.90656 5.65336 7.65322 5.56002 7.39322 5.50669C7.09989 5.44002 6.79989 5.40669 6.49989 5.41336C6.31989 5.41336 6.14656 5.42669 5.97322 5.46669C5.85322 5.49336 5.73322 5.54002 5.62656 5.60002C5.53989 5.64669 5.47322 5.72002 5.42656 5.80669C5.38656 5.88669 5.35989 5.97336 5.35989 6.06002C5.35989 6.16669 5.39322 6.28002 5.45322 6.36669C5.53989 6.48002 5.65322 6.56669 5.77322 6.63336C5.97322 6.74669 6.17989 6.85336 6.39322 6.94669L6.79322 7.10002C7.26656 7.29336 7.63322 7.50002 7.89989 7.72002C8.13989 7.90669 8.33322 8.15336 8.45989 8.42669C8.56656 8.68669 8.61989 8.96669 8.61989 9.24669C8.62656 9.64669 8.50656 10.0334 8.27989 10.36C8.03989 10.6867 7.71322 10.94 7.33989 11.0934C6.96656 11.2467 6.49322 11.3334 5.94656 11.3334Z" fill="white"/>
<path d="M12.2599 10.16V11.04C12.2599 11.12 12.2333 11.1666 12.1733 11.18C12.0333 11.2266 11.8866 11.26 11.7466 11.2866C11.5733 11.32 11.4066 11.3333 11.2333 11.3266C10.7666 11.3266 10.3999 11.2066 10.1399 10.96C9.87993 10.7133 9.73993 10.3266 9.73993 9.79331V7.11998H9.09326C9.03326 7.11998 9.00659 7.08664 9.00659 7.02664L9.01326 5.96664C9.01326 5.90664 9.04659 5.87997 9.10659 5.87997H9.75326C9.75992 5.75997 9.75993 5.62664 9.77326 5.46664C9.78659 5.30664 9.79992 5.14664 9.81326 4.98664C9.82659 4.82664 9.84659 4.69331 9.85992 4.59331C9.86659 4.57331 9.87992 4.55331 9.89326 4.53331C9.90659 4.51331 9.92659 4.49997 9.94659 4.49331L11.2266 4.33331C11.2466 4.32664 11.2599 4.32664 11.2799 4.33331C11.2933 4.33997 11.2999 4.35997 11.2999 4.39997C11.2866 4.56664 11.2733 4.78664 11.2666 5.07331C11.2599 5.35331 11.2599 5.61998 11.2533 5.88664H12.1999C12.2399 5.88664 12.2666 5.91331 12.2666 5.97331L12.2599 7.05331C12.2666 7.08664 12.2399 7.11998 12.2066 7.12664H11.2599V9.43998C11.2599 9.67998 11.2866 9.85997 11.3666 9.95997C11.4466 10.06 11.5999 10.1133 11.8199 10.1133C11.8866 10.1133 11.9466 10.1133 11.9999 10.1066C12.0533 10.1 12.1133 10.1 12.1733 10.0933C12.1933 10.0866 12.2133 10.0866 12.2333 10.1C12.2533 10.1066 12.2599 10.1266 12.2599 10.16Z" fill="white"/>
</g>
<defs>
<clipPath id="clip0_2180_4610">
<rect width="16" height="16" fill="white"/>
</clipPath>
</defs>
</svg>

<svg width="16" height="16" fill="none" xmlns="http://www.w3.org/2000/svg"><g clip-path="url(#a)"><path d="M2.833.2h10.334A2.831 2.831 0 0 1 16 3.033v9.934a2.831 2.831 0 0 1-2.833 2.833H2.833A2.831 2.831 0 0 1 0 12.967V3.033A2.831 2.831 0 0 1 2.833.2z" fill="#000B1D"/><path d="M5.947 11.333a5.37 5.37 0 0 1-1.087-.1 3.56 3.56 0 0 1-.82-.26c-.06-.026-.087-.086-.087-.18v-1.28c0-.02.007-.046.027-.06.02-.013.047-.006.067.007.3.187.62.327.953.42.32.093.653.14.987.14.406 0 .7-.06.873-.187.16-.1.26-.273.26-.466a.631.631 0 0 0-.087-.327 1.025 1.025 0 0 0-.3-.287 3.244 3.244 0 0 0-.593-.286L5.6 8.24c-.433-.187-.78-.387-1.027-.593-.226-.18-.4-.414-.506-.68a2.249 2.249 0 0 1-.14-.787 1.937 1.937 0 0 1 1.146-1.8c.38-.18.854-.273 1.42-.273.32 0 .64.02.96.066.247.027.487.1.714.207.046.027.08.08.073.14v1.213c0 .02-.013.034-.027.047-.02.02-.04.013-.066-.007a3.075 3.075 0 0 0-.754-.266 3.666 3.666 0 0 0-.893-.094c-.18 0-.353.014-.527.054-.12.026-.24.073-.346.133a.498.498 0 0 0-.2.207.574.574 0 0 0-.067.253c0 .107.033.22.093.307.087.113.2.2.32.266.2.114.407.22.62.314l.4.153c.474.193.84.4 1.107.62.24.187.433.433.56.707.107.26.16.54.16.82.007.4-.113.786-.34 1.113-.24.327-.567.58-.94.733-.373.154-.847.24-1.393.24zM12.26 10.16v.88c0 .08-.027.127-.087.14-.14.047-.286.08-.426.107-.174.033-.34.046-.514.04-.466 0-.833-.12-1.093-.367s-.4-.633-.4-1.167V7.12h-.647c-.06 0-.086-.033-.086-.093l.006-1.06c0-.06.034-.087.094-.087h.646c.007-.12.007-.253.02-.413l.04-.48c.014-.16.034-.294.047-.394a.27.27 0 0 1 .033-.06.104.104 0 0 1 .054-.04l1.28-.16a.073.073 0 0 1 .053 0c.013.007.02.027.02.067a11.89 11.89 0 0 0-.033.673c-.007.28-.007.547-.014.814h.947c.04 0 .067.026.067.086l-.007 1.08c.007.034-.02.067-.053.074h-.947V9.44c0 .24.027.42.107.52.08.1.233.153.453.153.067 0 .127 0 .18-.006.053-.007.113-.007.173-.014a.065.065 0 0 1 .06.007c.02.007.027.027.027.06z" fill="#fff"/></g><defs><clipPath id="a"><path fill="#fff" d="M0 0h16v16H0z"/></clipPath></defs></svg>
